X: 39584
T: Teelin, The
R: barndance
M: 4/4
K: Gmajor
|:d>c|B2 D2 G2- G>A|B2 A2 A2 (3ABc|d2 d2 ^c2 d2|e2 d2 B>dB>A|
B2 D2 G2- G>A|B2 A2 A2- A>d|e2 ^d2 e2 F2|1 A2 G2 G>e:|2 A2 G2 G2-||
|:G>A|B2 d2 b2- b>a|g2 B2 d2 (3efg|f2 e2 A>Bc>d|e2 d2 B2- B>A|
GABd b2- b>a|g2 B2 d2- d>g|f2 e2 f2 F2|1 A2 G2 G2-:|2 A2 G2 G2||

